X: 3
%
U:~=!turn!
T: Aberlour's Squeeze
C:Marshall
O:Scotland
B:Keith Norman MacDonald : "The Skye collection of the best reels & strathspeys extant" : 1887
Z:Ralph Palmer
R:Strathspey
M:C
L:1/8
K:C
E | c2 c>e d>B c2 | G<cc>e d>ef>g | e<c-c>e (e/d/)(c/B/) (c<A) | A<cG>E D>EF :|
e/g/ | g>ce>c g>c Te2 | g>c{/f}e>g a>df>a | g<ce<g c<ge<g | {AB}c>AG<E D>E F(e/f/) |
g>ce>c g>c Te2 | g>ce<g a>df>a | ((3efg) ((3def) ((3edc) ((3dcB) | ((3ABc) ((3GFE) D>EF |]


